!!!COM:	Bach, Johann Sebastian
!!!CDT:	1685/02/21/-1750/07/28/
!!!OTL@@DE:	Jesu, meine Freude
!!!SCT:	BWV 227/7
!!!PC#:	283
!!!AGN:	chorale
**kern	**kern	**kern	**kern
*ICvox	*ICvox	*ICvox	*ICvox
*Ibass	*Itenor	*Ialto	*Isoprn
*I"Bass	*I"Tenor	*I"Alto	*I"Soprano
*>[A,A,B]	*>[A,A,B]	*>[A,A,B]	*>[A,A,B]
*>norep[A,B]	*>norep[A,B]	*>norep[A,B]	*>norep[A,B]
*>A	*>A	*>A	*>A
*clefF4	*clefGv2	*clefG2	*clefG2
*k[f#]	*k[f#]	*k[f#]	*k[f#]
*e:	*e:	*e:	*e:
*M4/4	*M4/4	*M4/4	*M4/4
*met(c)	*met(c)	*met(c)	*met(c)
*MM100	*MM100	*MM100	*MM100
=1-	=1-	=1-	=1-
8r	8r	8r	4b
8EL	8BL	8gL	.
8G	8e	8b	4b
8EJ	8BJ	8gJ	.
8c	8eL	8g	4a
4r	8d#	4f#	.
.	8e	.	4g
8B	8GJ	8e	.
=2	=2	=2	=2
8AL	8cL	8eL	2f#
8F#J	16BL	16d#L	.
.	16AJJ	16c#JJ	.
8BL	8BL	4d#	.
8BBJ	8AJ	.	.
4E;	8G;L	8e;L	2e;
.	8A	8d#	.
4r	8G	8e	.
.	8F#J	8f#J	.
=3	=3	=3	=3
8r	8EL	16gLL	4b
.	.	16f#J	.
8EL	8EJ	8gJ	.
8A	4r	8r	4cc#
8GJ	.	8e	.
8F#L	8r	4.a	4dd
8DJ	8F#L	.	.
[4G	8d	.	4b
.	8AJ	16gLL	.
.	.	16f#JJ	.
=4	=4	=4	=4
8GL]	8BL	8gL	2ee
16F#L	16AL	16aL	.
16EJJ	16GJJ	16bJJ	.
4cnX	16eLL	4a	.
.	16d#J	.	.
.	8eJ	.	.
8B;L	4f#;	4b;	2dd#;
8c	.	.	.
8B	4r	8r	.
8AJ	.	8ccnX	.
=5	=5	=5	=5
8GL	8r	8bL	8eeL
8F#J	8d#	8aJ	8ff#J
8EL	4.e	8gL	4gg
8GJ	.	8bJ	.
8AL	.	8ccL	4.ff#
8F#J	8e	8aJ	.
8BL	[4d	4f#	.
8AJ	.	.	8ff#
=6	=6	=6	=6
8G#;L	4d;]	8b;L	1ee;
8EJ	.	8g#J	.
8AL	16cLL	8eL	.
.	16BJ	.	.
8AAJ	8cJ	8aJ	.
2E	2B	2g#	.
=7:|!	=7:|!	=7:|!	=7:|!
*>B	*>B	*>B	*>B
8EL	8eL	8gnXL	4b
8D#J	8f#J	8aJ	.
8D#L	8f#L	8aL	4b
8EJ	8eJ	8gJ	.
8EL	8eL	8gL	4cc
8F#J	8dJ	8aJ	.
8GnXL	8dL	8aL	4b
8EJ	8eJ	8gJ	.
=8	=8	=8	=8
8CL	4e	4g	4a
8C#J	.	.	.
4DnX	8dL	4f#	4a
.	8cJ	.	.
2GG;	8c;L	8g;L	2g;
.	8B	8d	.
.	8c	8e	.
.	8AJ	8f#J	.
=9	=9	=9	=9
8r	8GL	8gL	4b
4G	8BJ	8dJ	.
.	8e	4g	4cc#
16F#LL	4A	.	.
16EJJ	.	.	.
8F#L	.	8r	4dd
8D	16GLL	4a	.
.	16F#JJ	.	.
8G	[4d	.	4b
8F#J	.	16gLL	.
.	.	16f#JJ	.
=10	=10	=10	=10
8G#L	8dL]	8eL	4ee
8A#J	8c#J	8gnXJ	.
8BL	8dL	8f#L	4dd
8GJ	16eL	8bJ	.
.	16f#JJ	.	.
8EL	8gL	4b	2cc#
8E#J	8c#	.	.
4F#	8f#	4a#	.
.	8eJ	.	.
=11	=11	=11	=11
2BB;	4d#;	8b;L	2b;
.	.	8f#	.
.	8r	8b	.
.	8B	8anXJ	.
8r	8eL	[2g	4b
8EL	16eL	.	.
.	16d#JJ	.	.
8G	[4e	.	4b
8EJ	.	.	.
=12	=12	=12	=12
8c	8eL]	8g]	4a
8r	8d#	4f#	.
8r	8e	.	4g
8B	8GJ	8e	.
8AL	8cL	8eL	2f#
8F#J	8AJ	16dnXL	.
.	.	16c#JJ	.
8BL	8F#L	[4d	.
8AJ	8BJ	.	.
=13	=13	=13	=13
8G#L	8BL	8dL]	1e;
8EJ	8G#J	16eL	.
.	.	16dJJ	.
8AL	8EL	16cnXLL	.
.	.	16BJ	.
8AAJ	[8AJ	8cJ	.
2E;	8AL]	2B;	.
.	8G#J	.	.
.	4G#;	.	.
==	==	==	==
*-	*-	*-	*-
!!!hum2abc: -Q ''
!!!title: @{PC#}. @{OTL@@DE}
!!!YOR1: 371 vierstimmige Choralges&auml;nge von Johann Sebastian Bach, 
!!!YOR2: 4th ed. by Alfred D&ouml;rffel (Leipzig: Breitkopf und H&auml;rtel, 
!!!YOR2: c.1875). 178 pp. Plate "V.A.10".  reprint: J.S. Bach, 371 Four-Part 
!!!YOR4: Chorales (New York: Associated Music Publishers, Inc., c.1940).
!!!SMS: B&H, 4th ed, Alfred D&ouml;rffel, c.1875, plate V.A.10
!!!EED:  Craig Stuart Sapp
!!!EEV:  2009/05/22
